storage/app/icons/phosphoricons/thin/linkedin-logo-thin.svg

<svg xmlns="http://www.w3.org/2000/svg" fill="currentColor" viewBox="0 0 256 256"><path d="M216 28H40a12 12 0 0 0-12 12v176a12 12 0 0 0 12 12h176a12 12 0 0 0 12-12V40a12 12 0 0 0-12-12m4 188a4 4 0 0 1-4 4H40a4 4 0 0 1-4-4V40a4 4 0 0 1 4-4h176a4 4 0 0 1 4 4ZM92 112v64a4 4 0 0 1-8 0v-64a4 4 0 0 1 8 0m88 28v36a4 4 0 0 1-8 0v-36a24 24 0 0 0-48 0v36a4 4 0 0 1-8 0v-64a4 4 0 0 1 8 0v6.87A32 32 0 0 1 180 140M96 84a8 8 0 1 1-8-8 8 8 0 0 1 8 8"/></svg>

<svg xmlns="http://www.w3.org/2000/svg" viewBox="0 0 256 256" fill="currentColor"><path d="M216,28H40A12,12,0,0,0,28,40V216a12,12,0,0,0,12,12H216a12,12,0,0,0,12-12V40A12,12,0,0,0,216,28Zm4,188a4,4,0,0,1-4,4H40a4,4,0,0,1-4-4V40a4,4,0,0,1,4-4H216a4,4,0,0,1,4,4ZM92,112v64a4,4,0,0,1-8,0V112a4,4,0,0,1,8,0Zm88,28v36a4,4,0,0,1-8,0V140a24,24,0,0,0-48,0v36a4,4,0,0,1-8,0V112a4,4,0,0,1,8,0v6.87A32,32,0,0,1,180,140ZM96,84a8,8,0,1,1-8-8A8,8,0,0,1,96,84Z"/></svg>
